X: 42
T:The Cambro Britons
M:2/4
L:1/8
Q:240
C:Trad
S:Blodau'r Grug Collection Vol. 3
R:Set Dance
A:Wales
Z:brian_martin12345@yahoo.com
K:G
g2dB|Gd cA|Fc AF|GB/d/ g/d/B/d/|g2 dB|Gd cA|FA FD|G2G2:||
Dc2A|Bd fg|Dc2A|Bd BG|Bd gb|ce ac'|ac' af|g2g2:||
K:D
dc/d/ dD|dc/d/ dD|dc/B/ AG/F/ EEEz|dc/d/ dD|dc/d/ dD|fg ef|d>edz||
f3a|d3f|fe dc|d2D2|f3a|d3f|fe dc|dAD||]
K:G
d|Bd ce|dB AG|Gg dB|.A.A.A d|Bd ce|dB AG|Bd Ad|BGG:||
d|g2 dB|g2 dB|Gg dB|.A.A.A d|g2 dB|g2 dB|Bd Ad|BGG:||

